X:1
T:The Bible
T:A. F. Atkin
T:The Bible
T:Public Domain
T:Public Domain
C:A. F. Atkin
Z:Public Domain
%%score 1 ( 2 3 )
L:1/8
M:3/4
K:D
V:1 treble 
V:2 bass 
V:3 bass 
V:1
 [FA]2 | [FA]2 [DF]2 [EG]2 | [FA]2 [Fd]3 [GB] | [FA]6- | [FA]4 [DF]2 | [EG]2 [CE]2 [DF]2 | %6
w: 1.~O|Sav- ior, I|know Thou art|mine,|* Thy|Word have I|
w: 2.~Thy|search- light of|truth has il-|lumed|* The|path once so|
w: 3.~Each|day all the|way grows more|bright,|* I|know not its|
 [EG]2 [GB]3 [FA] | [DF]6- | [DF]4 [FA]2 | [FA]2 [DF]2 [EG]2 | [FA]2 [Fd]3 [Ac] | [GB]6- x6 | %12
w: hid in my|heart;|* I|know all its|pre- cepts di-|vine,|
w: rug- ged and|long;|* I|tread not in|dark- ness and|gloom,|
w: ter- ror and|gloom;|* I|know that its|beau- ti- ful|light|
 [GB]4 [GB]2 | [FA]2 [GB]2 [Dd]2 | [DF]2 [CG]3 [A,C] | [A,D]6- | [A,D]4 ||"^Refrain" [DF]2 x4 | %18
w: * And|from them we’ll|ne- ver de-|part.|||
w: * Each|day I am|jour- ney- ing|on.||Then|
w: * Will|shine ev- en|thro’ the dark|tomb.|||
 [CE]3 [DF] [EG]2 | [FA]2 [GB]2 [Gc]2 | [Fd]2 [FA]4- | [FA]4 [Fd]2 | [Ec]2 [Ed]2 [Ec]2 | %23
w: |||||
w: give me the|Bi- ble for-|ev- er;|* Its|truth in my|
w: |||||
 [EB]2 [Ec]3 [DB] | [CA]6- | [CA]4 [GA]2 | [Fd]3 [Gc] [Ad]2 | [Ge]2 [Gd]2 [GB]2 | [FA]2 [DF]4- | %29
w: ||||||
w: heart now I|hide;|* There’s|naught can com-|pel us to|se- ver,|
w: ||||||
 [DF]4 [DB]2 | [DA]2 [DB]2 [Dd]2 | [DF]2 [CG]3 [A,C] | [A,D]6- | [A,D]4 |] %34
w: |||||
w: * O|search- light of|truth, be my|guide.||
w: |||||
V:2
 [D,D]2 | [D,D]2 [D,A,]2 [D,A,]2 | [D,D]2 [D,A,]3 [D,D] | [D,D]6- | [D,D]4 [D,A,]2 | %5
 [A,,A,]2 [A,,A,]2 [A,,A,]2 | [A,,A,]2 [A,,A,]3 [A,,A,] | [D,A,]6- | [D,A,]4 [D,D]2 | %9
 [D,D]2 [D,A,]2 [D,A,]2 | [D,D]2 [D,A,]3 [D,D] | [G,D]6- [G,D]4 [G,D]2 | [D,D]2 [G,D]2 [G,B,]2 | %13
 A,2 [A,,A,]3 [A,,G,] | [D,F,]6- | [D,F,]4 x2 | [D,A,]2 x2 || [A,,A,]3 [A,,A,] [A,,A,]2 | %18
 [A,,A,]2 [A,,A,]2 [A,,A,]2 | [D,A,]2 [D,D]4- | [D,D]4 [D,A,]2 | [E,A,]2 [E,B,]2 [E,A,]2 | %22
 [E,^G,]2 [E,A,]3 [E,G,] | [A,,A,]6- | [A,,A,]4 [A,,A,]2 | [D,A,]3 [E,A,] [F,A,]2 | %26
 [G,B,]2 [G,B,]2 [G,D]2 | [D,D]2 [D,A,]4- | [D,A,]4 G,2 | [F,A,]2 G,2 [G,B,]2 | %30
 A,2 [A,,A,]3 [A,,G,] | [D,F,]6- | [D,F,]4 x2 | x4 |] %34
V:3
 x2 | x6 | x6 | x6 | x6 | x6 | x6 | x6 | x6 | x6 | x6 | x12 | x6 | A,2 x4 | x6 | x6 | x4 || x6 | %18
 x6 | x6 | x6 | x6 | x6 | x6 | x6 | x6 | x6 | x6 | x4 G,2 | x2 G,2 x2 | A,2 x4 | x6 | x6 | x4 |] %34

